!!!COM: Henri Reber
!!!CNT: Francais
!!!TXO: Francais
!!!OTL: Le Papillon et la Fleur
!!!LYR: Victor Hugo
!!!ENC: Jacob Pegg
!!!YOR: Romantic French Song 1830-1870, David Tunley, ed., New York: Garland Publishing, Inc., 1995, vol. 3
!!!ODT: 1847/
!!NB: Vocal melody and text only encoded.
!!NB: First instance of melodic material only encoded.
**kern	**silbe
*clef G2	*
*k[f#]	*
*M2/4	*
=5	=5
{4g	{La
8.a	pau-
16a	-vre
=6	=6
8.b	fleur
16b	dis-
4b	-ait
=7	=7
8cc	au
16cc	pa-
16cc	-pil-
8.cc	-lon
16b	ce/-
=8	=8
(4b	-les-
8g)}	-te;}
8r	.
=9	=9
{8.a	{Ne
16a	fuis~
[4a	~pas!
!!Hyphenated in text, not in score
=10	=10
4a]}	|}
4r	.
=11	=11
{4g	{Vois
8.a	com-
16a	-me
=12	=12
8.b	nos
16b	des-
8.b	-tins
16b	sont
=13	=13
8.dd	dif-
16dd	-fe/-
8cc	-rents.
16r	.
16cc	Je
=14	=14
(4cc	res-
8b)	-te,
8r	.
=15	=15
8.a	Tu
16b	t'en-
[4g	-vas!
=16	=16
4g]}	|}
4r	.
=17	=17
4r	.
8r	.
16r	.
!!16r added to avoid timing error
{16a	{Pour-
=18	=18
[4a	-tant
16a]	|
16a	nous
16b	nous
16a	ai-
=19	=19
4a}	-mons,}
8r	.
{16a	{nous
16a	vi-
=20	=20
(8a	-vons
8dd)	|
8.dd	sans
16cc#	les
=21	=21
(4cc#	hom-
8b)}	-mes}
8r	.
=22	=22
{(8.b	{Et
16e)	loin
[4e	d'eux,
=23	=23
4e]}	|}
4r	.
=24	=24
{8f#	{Et
16.f#	nous
32f#	nous
8g	res-
8g#	-sem-
=25	=25
2a	-blons,
=26	=26
8.gn	et
16g	l'on
8a	dit
16a#	que
16a#	nous
=27	=27
(4.b	som-
8a)}	-mes}
=28	=28
{8.a	{Fleurs
16b	tous
[4g	deux!
=29	=29
4g]}	|}
4r	.
=30	=30
2r	.
=31	=31
2r	.
!! fnord 
=32	=32
{4g	{Mais,
4a	he/-
bq	|
=33	=33
4b	-las!
8.b	l'air
16b	t'em-
=34	=34
8cc	-porte
16.cc	et
32cc	la
8cc	ter-
16cc	-re
16bb	m'en-
=35	=35
(4b	-chai^-
8g)}	-ne.}
8r	.
=36	=36
{8.a	{Sort
16a	cru-
[4a	-el!
=37	=37
4a]}	|}
4r	.
=38	=38
{8.g	{Je
16g	vou-
4a	-drais
=39	=39
8.b	em-
16b	-bau-
8.b	-mer
16b	ton
=40	=40
8.dd	vol
16dd	de
8.cc	mon
16cc	ha-
=41	=41
(4cc	-lei-
4b)}	-ne}
=42	=42
{8.a	{Dans
16b	le
[4g	ciel!
=43	=43
4g]}	|}
4r	.
=44	=44
2r	.
=45	=45
!!Garland p. 5
{8.a	{Mais
16r	.
8.a	non,
16r	.
=46	=46
16r	.
16a	tu
16b	vas
16a	trop
8a}	loin!}
16r	.
{16a	{Par-
=47	=47
!!not clear in the autograph whether the dot is on the first
!!eighth note or the second; looks more like the second.
(8a	-mi
16dd)	|
16dd	des
8.dd	fleurs
16cc#	sans
=48	=48
(4c#	nom-
4b)}	-bre}
=49	=49
{(8.b	{Vous
16e)	fuy-
[4e	-ez,
=50	=50
4e]}	|}
4r	.
=51	=51
{8f#	{Et
16.f#	moi
32f#	je
8g	res-
8g#	-te
=52	=52
4.a	seu-
8a	-le a\
=53	=53
8.gn	voir
16gn	tour-
8a	-ner
8a#	mon
=54	=54
(4.b	om-
8an)}	-bre}
=55	=55
{8.a	{A
16b	mes
[4g	pieds!
=56	=56
4g]}	|}
4r	.
=57	=57
2r	.
=58	=58
2r	.
!! fnord fnord
=59	=59
{4g	{Tu
4a	fuis,
=60	=60
8b	puis
16.b	tu
32b	re-
4b	-viens,
=61	=61
8cc	puis
16cc	tu
16cc	t'en
8.c	vas
16b	en-
=62	=62
(4b	-co-
4g)}	-re}
=63	=63
{8.a	{Luire
16a	ail-
[4a	-leurs.
=64	=64
4a]}	|}
4r	.
=65	=65
{4g	{Aus-
8.a	-si
16a	me
=66	=66
8.b	trou-
16b	-ves~
8.b	~tu
16b	tou-
=67	=67
8.dd	-jours
16dd	a\
8.cc	chaque
16cc	au-
=68	=68
(4cc	-ro-
4b)}	-re}
=69	=69
{8.a	{Toute
16b	en
[4g	pleurs!
=70	=70
4g]}	|}
4r	.
=71	=71
2r	.
=72	=72
{[4a	{Oh!
16a]	|
16r	.
16.a	pour
32a	que
=73	=73
(16a	no-
8b)	-tre
16a	a-
4a	-mour
=74	=74
(16a	cou-
16dd)	|
16dd	-le
16dd	des
8.dd	jours
16cc#	fi-
=75	=75
(4cc#	-de\-
8b)}	-les,}
8r	.
=76	=76
{(8.b	{O^
16e)	mon
[4e	roi,
=77	=77
4e]}	|}
4r	.
=78	=78
{8f#	{Prends
16.f#	com-
32f#	-me
8g	moi
8g#	ra-
=79	=79
2a	-cine,
=80	=80
8gn	ou
16.gn	don-
32gn	-ne
8a	moi
8a#	des
=81	=81
(4.b	ai-
8a)}	-les}
=83	=83
{8.a	{com-
16b	-me a
[4g	toi!
=84	=84
4g]}	|}
4r	.
*-	*-
